icons/icon.svg

<svg xmlns="http://www.w3.org/2000/svg" data-name="Layer 1" viewBox="0 0 100 100" x="0px" y="0px"><defs><style>.cls-1{fill-rule:evenodd;}</style></defs><path class="cls-1" d="M27.116,94.981a21.688,21.688,0,0,1-8.323-41.625l.5-.2A38.2,38.2,0,0,1,23.532,23.34a1.359,1.359,0,0,1,1.869-.453L42.535,33.328a16.84,16.84,0,0,1,3.283-3.406L38.927,12.164l-.04-.094A3.062,3.062,0,0,1,44.575,9.8l0,0,6.647,17.308.311-.093q.78-.224,1.564-.369V8.1h0a3.058,3.058,0,0,1,6.115-.131,1.138,1.138,0,0,1,.007.131V26.652a16.712,16.712,0,0,1,1.76.427L67.738,9.8a3.062,3.062,0,0,1,5.688,2.267l-.04.094L66.494,29.923a16.726,16.726,0,0,1,3.289,3.4L86.911,22.887a1.361,1.361,0,0,1,1.87.453A38.192,38.192,0,1,1,22.488,61.223l-.358.14a12.791,12.791,0,0,0-6.293,5.87,13.112,13.112,0,0,0-1.21,8.619A12.957,12.957,0,0,0,27.176,86.275h55.2a4.544,4.544,0,0,1,2.352.434,4.323,4.323,0,0,1,0,7.839,4.546,4.546,0,0,1-2.352.434l-55.264,0ZM15.233,87.894a18.926,18.926,0,0,0,11.905,4.371H82.391a1.373,1.373,0,0,1,.212.006,1.812,1.812,0,0,0,.958-.174,1.614,1.614,0,0,0,0-2.938,1.821,1.821,0,0,0-.958-.173l-.139.006-55.319,0A15.7,15.7,0,0,1,11.954,76.384a15.816,15.816,0,0,1,1.465-10.4,15.511,15.511,0,0,1,7.635-7.126l21.175-8.3a1.326,1.326,0,0,1,.191-.147,1.352,1.352,0,0,1,.736-.216l13.8-5.408a1.719,1.719,0,0,0,.711-.911,1.845,1.845,0,0,0,.007-1.287,1.642,1.642,0,0,0-1.89-.994L19.858,55.86a18.8,18.8,0,0,0-9.3,8.571,19.017,19.017,0,0,0,4.674,23.463Zm6.6-35.742L39.451,45.16a16.759,16.759,0,0,1,1.671-9.507L25.17,25.931a35.467,35.467,0,0,0-3.337,26.221Zm20.251-8.037,12.779-5.071a1.481,1.481,0,0,1,.167-.055,4.349,4.349,0,0,1,5.179,2.6,4.578,4.578,0,0,1,.025,3.2,4.413,4.413,0,0,1-2.068,2.434,1.435,1.435,0,0,1-.138.064L45.356,52.261A14.1,14.1,0,0,0,68.328,36.078a1.389,1.389,0,0,1-.138-.189,1.371,1.371,0,0,1-.108-.217A14.1,14.1,0,0,0,57.77,29.185c-.045,0-.089-.007-.132-.014a14,14,0,0,0-2.987,0l-.091.01a14.135,14.135,0,0,0-10.384,6.57l-.1.162a14.07,14.07,0,0,0-1.993,8.2Zm.623,9.184L25.039,60.223a35.472,35.472,0,1,0,62.1-34.292L71.194,35.65q.332.662.608,1.36A16.823,16.823,0,0,1,42.707,53.3ZM70.255,10.84l-6.74,17.229.076.037c.194.095.386.195.577.3l6.685-17.225.027-.079a.346.346,0,0,0,0-.261.334.334,0,0,0-.182-.178.344.344,0,0,0-.262,0,.336.336,0,0,0-.177.177ZM56.493,26.372V8.1l0-.076a.362.362,0,0,0-.043-.123.347.347,0,0,0-.123-.129.335.335,0,0,0-.468.129.343.343,0,0,0-.046.173V8.1h.005V26.372q.337-.006.673,0Zm-7.8,1.743L42.064,10.846h0a.338.338,0,0,0-.442-.186.334.334,0,0,0-.182.178.346.346,0,0,0,0,.261l.027.079L48.144,28.4Q48.416,28.252,48.7,28.115Z"/><!-- Icon: "rolodex" by M2n, from Noun Project (CC BY 3.0) --></svg>

<?xml version="1.0" encoding="UTF-8" standalone="no"?>
<!DOCTYPE svg PUBLIC "-//W3C//DTD SVG 1.1//EN" "http://www.w3.org/Graphics/SVG/1.1/DTD/svg11.dtd">
<svg width="100%" height="100%" viewBox="0 0 128 128" version="1.1" xmlns="http://www.w3.org/2000/svg" xmlns:xlink="http://www.w3.org/1999/xlink" xml:space="preserve" xmlns:serif="http://www.serif.com/" style="fill-rule:evenodd;clip-rule:evenodd;stroke-linejoin:round;stroke-miterlimit:2;">
    <g transform="matrix(1.02363,0,0,1.05006,-2.80054,-6.44502)">
        <path d="M127.781,36.612C127.781,19.793 113.774,6.138 96.52,6.138L33.997,6.138C16.744,6.138 2.736,19.793 2.736,36.612L2.736,97.561C2.736,114.38 16.744,128.035 33.997,128.035L96.52,128.035C113.774,128.035 127.781,114.38 127.781,97.561L127.781,36.612Z" style="fill:rgb(240,197,88);"/>
    </g>
    <g transform="matrix(0.901708,0,0,0.901708,17.5728,17.2977)">
        <path d="M27.116,94.981C15.299,94.866 5.64,85.112 5.64,73.294C5.64,64.632 10.83,56.765 18.793,53.356L19.293,53.156C16.565,43.061 18.098,32.275 23.532,23.34C23.778,22.935 24.219,22.688 24.693,22.688C24.943,22.688 25.188,22.757 25.401,22.887L42.535,33.328C43.464,32.044 44.569,30.897 45.818,29.922L38.927,12.164L38.887,12.07C38.743,11.709 38.669,11.324 38.669,10.935C38.669,9.255 40.051,7.873 41.731,7.873C42.981,7.873 44.112,8.639 44.575,9.8L51.222,27.108L51.533,27.015C52.053,26.866 52.574,26.743 53.097,26.646L53.097,8.1C53.097,8.078 53.096,8.056 53.096,8.034C53.096,6.357 54.477,4.976 56.155,4.976C57.807,4.976 59.177,6.316 59.212,7.969C59.217,8.012 59.219,8.056 59.219,8.1L59.219,26.652C59.813,26.762 60.4,26.905 60.979,27.079L67.738,9.8C68.213,8.663 69.331,7.92 70.563,7.92C72.243,7.92 73.625,9.302 73.625,10.982C73.625,11.352 73.557,11.72 73.426,12.067L73.386,12.161L66.494,29.923C67.746,30.895 68.853,32.04 69.783,33.323L86.911,22.887C87.548,22.499 88.392,22.703 88.781,23.34C92.43,29.327 94.36,36.205 94.36,43.216C94.36,64.167 77.12,81.408 56.168,81.408C42.098,81.408 29.122,73.632 22.488,61.223L22.13,61.363C19.418,62.534 17.193,64.609 15.837,67.233C14.464,69.884 14.037,72.926 14.627,75.852C15.819,81.832 21.079,86.201 27.176,86.275L82.376,86.275C83.185,86.207 83.997,86.357 84.728,86.709C86.25,87.417 87.227,88.95 87.227,90.629C87.227,92.307 86.25,93.84 84.728,94.548C83.997,94.9 83.185,95.05 82.376,94.982L27.112,94.982L27.116,94.981ZM15.233,87.894C18.58,90.676 22.786,92.22 27.138,92.265L82.391,92.265C82.462,92.262 82.533,92.264 82.603,92.271C82.932,92.301 83.264,92.241 83.561,92.097C84.136,91.835 84.506,91.26 84.506,90.628C84.506,89.996 84.136,89.421 83.561,89.159C83.263,89.015 82.932,88.956 82.603,88.986L82.464,88.992L27.145,88.992C19.769,88.897 13.406,83.616 11.954,76.384C11.244,72.852 11.761,69.182 13.419,65.984C15.063,62.798 17.763,60.279 21.054,58.858L42.229,50.558C42.288,50.503 42.352,50.454 42.42,50.411C42.639,50.269 42.895,50.194 43.156,50.195L56.956,44.787C57.291,44.575 57.542,44.253 57.667,43.876C57.824,43.462 57.826,43.005 57.674,42.589C57.376,41.841 56.569,41.416 55.784,41.595L19.858,55.86C15.862,57.557 12.575,60.587 10.558,64.431C6.4,72.346 8.359,82.176 15.232,87.894L15.233,87.894ZM21.833,52.152L39.451,45.16C39.064,41.896 39.645,38.589 41.122,35.653L25.17,25.931C20.722,33.912 19.526,43.311 21.833,52.152ZM42.084,44.115L54.863,39.044C54.918,39.022 54.973,39.004 55.03,38.989C57.156,38.415 59.4,39.541 60.209,41.589C60.602,42.618 60.611,43.754 60.234,44.789C59.873,45.83 59.135,46.698 58.166,47.223C58.121,47.247 58.075,47.268 58.028,47.287L45.356,52.261C48.033,55.453 51.992,57.299 56.158,57.299C63.893,57.299 70.258,50.934 70.258,43.199C70.258,40.696 69.592,38.238 68.328,36.078C68.277,36.019 68.231,35.956 68.19,35.889C68.148,35.82 68.112,35.747 68.082,35.672C65.806,32.062 62.01,29.674 57.77,29.185C57.725,29.185 57.681,29.178 57.638,29.171C56.645,29.064 55.644,29.064 54.651,29.171L54.56,29.181C50.281,29.673 46.453,32.095 44.176,35.751L44.076,35.913C42.589,38.378 41.893,41.241 42.083,44.113L42.084,44.115ZM42.707,53.299L25.039,60.223C31.211,71.717 43.245,78.915 56.291,78.915C75.751,78.915 91.763,62.903 91.763,43.443C91.763,37.304 90.17,31.27 87.139,25.931L71.194,35.65C71.415,36.091 71.618,36.545 71.802,37.01C72.581,38.979 72.98,41.078 72.98,43.196C72.98,52.424 65.386,60.019 56.157,60.019C50.871,60.019 45.882,57.527 42.707,53.3L42.707,53.299ZM70.255,10.84L63.515,28.069L63.591,28.106C63.785,28.201 63.977,28.301 64.168,28.406L70.853,11.181L70.88,11.102C70.914,11.018 70.914,10.925 70.88,10.841C70.845,10.76 70.78,10.696 70.698,10.663C70.614,10.628 70.52,10.628 70.436,10.663C70.356,10.697 70.293,10.76 70.259,10.84L70.255,10.84ZM56.493,26.372L56.493,8.024C56.486,7.981 56.472,7.939 56.45,7.901C56.421,7.848 56.379,7.804 56.327,7.772C56.275,7.741 56.215,7.724 56.154,7.724C56.031,7.724 55.917,7.792 55.859,7.901C55.829,7.954 55.813,8.013 55.813,8.074L55.813,8.1L55.818,8.1L55.818,26.372C56.043,26.368 56.267,26.368 56.491,26.372L56.493,26.372ZM48.693,28.115L42.064,10.846C42.013,10.718 41.888,10.635 41.751,10.635C41.706,10.635 41.663,10.643 41.622,10.66C41.54,10.693 41.475,10.757 41.44,10.838C41.406,10.922 41.406,11.015 41.44,11.099L41.467,11.178L48.144,28.4C48.325,28.301 48.511,28.206 48.7,28.115L48.693,28.115Z" style="fill:rgb(102,63,154);stroke:rgb(102,63,154);stroke-width:1.85px;"/>
    </g>
</svg>
